X:1
T:Süßer Trost, mein Jesus kömmt
T:BWV 151/1
T:Johann Sebastian Bach arr. André Papillon 
%%score 1 { ( 2 4 ) | 3 }
L:1/8
Q:3/16=80
M:12/8
K:G
V:1 treble nm="Flûte, Flute"
V:2 treble nm="Piano"
V:4 treble 
V:3 bass 
V:1
 d6- d/4g/4f/4e/4 d2- d/4c/4B/4A/4 G2- | %1
 G/4g/4f/4e/4 d2- d/4c/4B/4A/4.G.A B/4G/4F/4G/4ed- d/4B/4A/4B/4.gB | %2
 TA3- A/4G/4A/4B/4.ca- a/4g/4f/4g/4.ac- c/4B/4A/4B/4.ca- | %3
 a/4g/4f/4g/4.ac- c/4B/4A/4B/4.c.d B/^c/4d/4e/4f/4g/4a/4.b adTc | %4
 d3- d2 A ^G/4A/4B/4c/4.d=f- f/4e/4d/4c/4.Bd- | %5
 d/4c/4B/4A/4.^GB- B/4A/4G/4F/4.Ed c/c/4d/4e/f/4^g/4a- a/=g/4=f/4e/d/b/d/ | %6
 Tc3- c/4B/4A/4B/4c/f/4g/4a- a/A/4B/4c/f/4g/4a- a/a/4g/4f/f/4e/4d/d/4c/4 | %7
 B/4G/4F/4G/4c/4G/4F/4G/4d/4G/4F/4G/4 e/4f/4e/4c/4f/4g/4f/4c/4g/4a/4g/4c/4 a/4b/4a/4g/4a/4g/4f/4g/4f/4e/4f/4e/4 d3- | %8
 d/4c/4B/4c/4d/(g/e/c/) B3/2c/4d/4c/4B/4A/ G/^c/4B/4c/e/4d/4e/g/4f/4 .g =c2- | %9
 c/4B/4A/4B/4c/e/d- dc/B/TA/G/ G/4B/4A/4G/4B/4d/4c/4B/4d/4f/4e/4d/4 g3 | z12 | z12 | %12
 z3 a3- a/4g/4f/4g/4.ac- c/4B/4A/4B/4.ca- | %13
 a/4g/4f/4g/4.ac- c/4B/4A/4B/4.c.d B/^c/4d/4e/4f/4g/4a/4.b adTc | %14
 d3- d2 A ^G/4A/4B/4c/4.d=f- f/4e/4d/4c/4.Bd- | %15
 d/4c/4B/4A/4.^GB- B/4A/4G/4F/4.Ed c/c/4d/4e/f/4^g/4a- a/=g/4=f/4e/d/b/d/ | %16
 Tc3- c/4B/4A/4B/4c/f/4g/4a- a/A/4B/4c/f/4g/4a- a/a/4g/4f/f/4e/4d/d/4c/4 | %17
 B/4G/4F/4G/4c/4G/4F/4G/4d/4G/4F/4G/4 e/4f/4e/4c/4f/4g/4f/4c/4g/4a/4g/4c/4 a/4b/4a/4g/4a/4g/4f/4g/4f/4e/4f/4e/4 d3- | %18
 d/B/4c/4d/d/4e/4=f- f/4g/4f/4e/4f/4e/4d/4e/4d/4c/4d/4c/4 B/4c/4B/4A/4B/4A/4^G/4A/4G/4F/4G/4F/4 E/4G/4F/4E/4G/4B/4A/4G/4B/4d/4c/4B/4 | %19
 c3- c/4B/4A/4B/4.ca- a/4g/4f/4g/4.ad z3 | d6- d/4g/4f/4e/4 d2- d/4c/4B/4A/4 G2- | %21
 G/4g/4f/4e/4 d2- d/4c/4B/4A/4.Gd- d/4c/4B/4c/4d/g/e/c/ B3/2c/4d/4c/4B/4A/ | %22
 G/^c/4B/4c/e/4d/4e/g/4f/4 g =c2- c/f/4e/4f/a/4g/4a/c'/4b/4 c' d2- | %23
 d/4g/4f/4e/4.d.c B/4e/4d/4c/4.B.A G/4B/4A/4G/4B/4d/4c/4B/4d/4f/4e/4d/4 g3- | %24
 g/4f/4e/4f/4.gA- A/4G/4A/4B/4.^ca- a/4g/4f/4g/4.aB- B/4A/4B/4c/4^db- | %25
 b/d'/4c'/4b/b/4a/4^g/g/4f/4 e/4f/4g/4a/4b/d/=f/e/ Tc3- c/4B/4A/4B/4c/^f/4=g/4a- | %26
 a/A/4B/4c/f/4g/4a- a/a/4g/4f/f/4e/4d/d/4c/4 B/4G/4F/4G/4c/4G/4F/4G/4d/4G/4F/4G/4 e3- | %27
 e/4c/4B/4c/4f/4c/4B/4c/4g/4c/4B/4c/4 a3- a/4b/4a/4g/4f/4e/4d/4g/4f/4e/4d/4c/4 B/4e/4d/4c/4B/4A/4G/4c/4B/4A/4G/4F/4 | %28
 G/A/4B/4c/4B/4e/d/- d>cB/TA/G/ (G/4B/4A/4G/4)(B/4d/4c/4B/4)(d/4f/4e/4d/4) !fermata!g3 || %29
[M:2/2][Q:1/4=80] z4 z2 .f.b | Tgf/e/ ba/g/ .f2 z2 | z4 z2 (3c'/b/c'/(3g/a/b/ | %32
 (3a/g/a/(3f/g/a/ (3b/a/b/(3f/g/a/ ge b2- | b6 z2 | z2 B2- (3B/A/B/(3c/d/e/ (3f/g/a/(3d/g/f/ | %35
 g4- (3g/a/g/(3f/a/g/ (3a/g/f/(3e/f/d/ | d' z z2 z2 dg | fe/d/ z2 z2 dg | ed/c/ e6- | %39
 eA d2- (3d/c/d/(3e/g/f/ (3g/f/g/(3e/f/g/ | %40
 (3a/g/a/(3f/g/a/ (3b/a/b/(3f/g/a/ gf/e/ (3b/a/g/(3b/a/g/ | %41
 fb (3^d/^c/d/(3e/f/g/ (3f/g/a/(3d/e/f/ (3g/f/g/(3b/a/g/ | %42
 (3f/g/a/(3^d/e/f/ (3g/f/g/(3b/a/g/ (3f/e/f/(3d/e/f/ (3B/^c/d/(3e/f/g/ | %43
 (3g/c/d/(3e/f/g/ (3a/d/e/(3f/g/a/ (3a/d/e/(3f/g/a/ (3b/g/a/(3b/^c'/d'/ | e' z z2 z2 fb | %45
 T^a^g/f/ (3f/^c/^A/(3A/c/f/ (3f/d/B/(3f/e/d/ (3c/d/B/(3A/c/f/ | %46
 (3f/d/B/(3B/d/f/ (3a/e/^c/(3c/e/a/ (3a/f/d/(3a/g/f/ (3e/f/d/(3c/e/a/ | %47
 (3a/f/d/(3d/f/a/ (3b/a/g/(3g/f/e/ (3e/d/^c/(3c/B/^A/ (3A/B/c/(3c/d/e/ | e z z2 z4 | z4 z2 ^cf | %50
 Td^c/B/ z2 z (3g/b/g/ (3e/g/e/(3c/e/c/ | %51
 ^Af- (3f/e/f/(3d/e/f/ (3e/d/e/(3^c/d/e/ (3d/e/f/(3e/f/d/ | ^c z z2 z4 | z8 |] %54
V:2
 B,2 [A,C] [B,D]2 [A,C] B,2 [A,C] [B,D]2 [A,C] | [G,B,]2 [A,C] [B,D]2 [CF] [B,G]2 [CF] [DG]2 [EG] | %2
w: ||
 [DF]2 [EG] [FA]2 [EG] [DF]2 [EG] [FA]2 [EG] | [DF]2 [EG] [FA]2 [DA] [DG][GB][Bd] [Fd][FA][EG] | %4
w: ||
 F A2- [FA]2 E z ^GA [DB]2 [CA] | [B,D]2 [A,=F] [^G,E]2 [EB] [CA]2 [FA] [B,A]2 [E^G] | %6
w: ||
 [CA]3- [CA]2 [Ec] [Dc]2 [Ec] [Fc]2 [DA] | GFG- GFE A3- AGF | %8
w: ||
 [DG]2 [EG] [B,G]2 [A,F] [G,E]3- [G,E]AG | A2 F G2 F [B,G]3- [B,G][G,B,][A,C] | d6- d/g/f e d3- | %11
w: ||Sü- * * * ßer Trost|
 d/g/f e d3- d B c de c | A3 z3 c3- cA B | c e d cA d Bd g fe/d/e | d3 z3 .=f3- fe d | %15
w: _ _ _ mein Je- * sus, mein Je- * sus|kömmt Sü- * * ßer|Trost, Je- sus wird _ an- itzt _ ge- bo- * * *|ren. sü- * * ßer|
 d3- d c B cA =f Bc d | c3- c A B c3- c d A | Bc d ef g f/a/g/f/e/d/ d2 z | z3 d3- dB c d2 z | %19
w: Trost, _ sü- ßer Trost, _ mein Je- * sus|kömmt, _ sü- ßer Trost, _ Je- sus|wird _ an- itzt _ ge- bo- * * * * * ren,|sü- * * ßer Trost,|
 z3 c3- cA B c3- | c B c de f gf e dc B | ed c B c/B/ A/G/ d2 e Bc A | GF G gf e d3- d a c | %23
w: sü- * * ßer Trost,|_ sü- ßer Trost, _ mein Je- * sus kömmt, _ mein|Je- * sus kömmt, Je- * sus- * wird an- itzt _ ge-|bo- * ren, sü- * ßer Trost, _ Je- sus|
 B/e/d c BG F G3 G z z | E2 E G2 E F2 F A2 F | ^G2 B G3 A6 | A6 G3 GAB | A3- AGF G2 G G2 F | %28
w: wird _ _ an- itzt _ ge- bo- ren!|||||
 G2 F G2 F !fermata!G6 ||[M:2/2] z2 Be ^d^c/B/ z2 | z2 Be ^d^c/B/ (3e/d/e/(3B/=c/=d/ | %31
w: |Herz~ und~ See- le,~ _|Herz~ und~ See- le~ _ freu- * * * * *|
 (3c/B/c/(3A/B/c/ (3d/c/d/(3A/B/c/ B/A/G z2 | z4 z2 B e | ^d e f g/e/ f z F B | %34
w: * * * * * * * * * * * * * et~ sich,~|Herz~ und~|See- le~ freu- et~ _ sich,~ denn~ mein~|
 G F/E/ e d c B/ A/ d2- | d e/d/ c/B/ A/G/ B A/ B/ c2- | c d/B/ c d e d z2 | z2 A d B A/G/ z2 | %38
w: lieb- ster~ _ Gott~ hat~ mich~ nun~ zum~ Him-|* mel~ _ aus- * er- * ko- ren,~ zum~ Him-|* mel~ _ aus- er- ko- ren,~|Herz~ und~ See le,~ _|
 z2 B e c B/A/ (3e/d/e/(3c/d/e/ | (3=f/e/f/(3d/e/f/ (3g/f/g/(3d/e/f/ e/ d/ c z2 | z4 z2 B e | %41
w: Herz~ und~ See- le~ _ freu- * * * * *|* * * * * * * * * * * * * et~ sich,~|Herz~ und~|
 ^d e f g/e/ f (3B/^c/d/ (3e/d/e/(3g/f/e/ | (3f/e/f/(3B/^c/^d/ (3e/d/e/(3g/f/e/ f/ d/ B z e/ =d/ | %43
w: See- le~ Freu- et~ _ sich,~ freu- * * * * * * * *|* * * * * * * * * * * * * et~ sich,~ denn~ mein~|
 c B/A/ d c B A/ G/ g2- | g f/e/ d/^c/ d/B/ ^A ^G/F/ z2 | z2 ^c f d c/d/ e d/c/ | %46
w: lieb- ster~ _ Gott~ hat~ mich~ nun~ zum~ Him-|* mel~ _ aus- * er- * ko- ren.~ _|Herz~ und~ See- le~ _ freu- et~ _|
 d2 A e f e/f/ g f/e/ | f2 B ^c/d/ e3/2 d/ c/d/ e/f/ | g f/ e/ d/^c/ B/^A/ f3/2 g/ c2 | B B f6- | %50
w: sich,~ denn~ mein~ lieb- ster~ _ Gott~ hat~ _|mich~ nun~ zum _ Him- mel~ aus- * er- *|ko- ren,~ zum~ Him- * mel _ aus- er- ko-|ren,~ zum~ Him-|
 f g/f/ e/d/ ^c/B/ e4- | (3e/d/e/(3^c/d/e/ (3d/c/d/(3B/c/d/ (3c/B/c/(3^A/B/c/ (3B/c/d/(3c/d/B/ | %52
w: * mel~ _ aus- * er- * ko-||
 ^A ^G/ F/ f A B3/2 ^c/ c2 | B2 z2 z4 |] %54
w: * ren,~ zum~ Him- mel~ aus- er- ko-|ren.~|
V:3
 G,G,, z z3 G,G,, z z3 | G,G,, z z2 D, G,2 A, B,2 C | DD, z z3 DD, z z3 | %3
 DD, z z2 F, G,2 E, A,2 A,, | D,2 A, D2 C B,B,, z z3 | A,A,, z z2 ^G, A,2 D, E,2 E,, | %6
 A,,2 E, A,2 G, F,2 E, D,2 F, | G,A,B, CA,G, F,3- F,G,A, | B,B,,C, D,C,D, E,3- E,F,G, | %9
 F,A,,C, B,,C,D, G,,6 | G,G,, z z3 G,G,, z z3 | G,G,, z z2 D, G,2 A, B,2 C | DD, z z3 DD, z z3 | %13
 DD, z z2 F, G,2 E, A,2 A,, | D,2 A, D2 C B,B,, z z3 | A,A,, z z2 ^G, A,2 D, E,2 E,, | %16
 A,,2 E, A,2 G, F,2 E, D,2 F, | G,A,B, CA,G, D,3- D,DC | B,B,, z z3 E,E,, z z3 | %19
 A,A,, z z3 D,D,, z z3 | G,G,, z z3 [F,G,]F,, z z3 | E,E,, z z2 A,, B,,2 C, D,2 D,, | %22
 E,,E, z z3 F,,F, z z3 | G,,B,,C, D,C,D, G,2 F, E,2 D, | ^C,^C,, z z3 ^D,^D,, z z3 | %25
 E,E,, z z3 A,,2 E, A,2 G, | F,2 E, D,2 F, G,A,B, C2 B, | A,2 G, F,G,A, B,B,,C, D,C,D, | %28
 E,A,,C, B,,C,D,"_Fine" !fermata!G,,6 ||[M:2/2] E,F,G,E, B,F,^D,B,, | E,F,G,E, B,A,G,E, | %31
 A,G,F,D, G,F,E,C, | F,E,^D,B,, E,F,G,E, | B,G,F,E, B,B,,^D,B,, | E,F,G,E, A,,B,,C,A,, | %35
 B,,C,/D,/E,C, D,DF,D, | G,=F,E,D, C,G,/A,/B,G, | DE,F,D, G,A,B,G, | CB,/A,/^G,E, A,B,CA, | %39
 DCB,G, CDEC | F,E,^D,B,, E,F,G,E, | B,G,F,E, B,A,G,E, | B,A,G,E, B,A,G,E, | A,G,F,D, G,F,E,D, | %44
 ^C,^A,B,G, F,E,D,B,, | F,^G,^A,F, B, .F,2 F, | B,B,,^C,A,, D, .A,,2 A,, | %47
 D,E,/F,/G,E, ^C,D,/E,/F,C, | ^A,,2 B,,^C, D,E,F,F,, | B,,^C,D,B,, F,^G,^A,F, | %50
 B,D,E,F, G,^C,D,E, | F,^A,B,B,, F, .F,,3 | z E,D,^C, D,E,F,F,, | B,,2 z2"_Da capo al fine" z4 |] %54
V:4
 x12 | x12 | x12 | x12 | D2 G x3 D2 C x3 | x12 | x12 | D3 C3 ([CD]3 [CD])[B,D]C | x10 D2 | %9
 D[CE]D DEC x6 | B,2 [A,C] [B,D]2 [A,C] B,2 [A,C] [B,D]2 [A,C] | B,2 [A,C] [B,D]GF G3- G2 E | %12
 F2 [EG] [FA]2 [EG] F2 E F2 G | F3- F2 A D2 B A2 G | F2 [EG] [FA]2 E ^G2 [CA] [DB]2 [CA] | %15
 [DB]2 [=FA] [E^G]2 E E2 A A2 G | [EA]6 [DA]6 | GF G- Gc B A3 F2- [FA] | %18
 [=FB]2 [EA] [D^G]2 [FA] [EG]2 A GEG | [CE]2 [B,G] [CF]2 G F2 G FAD | G2 A Bc A BA G FE D | %21
 GF E D3 G2 G GE F | B,3 B3 A2 c A2 F | G2 E D2 C B,3- B,A,B, | A,2 ^C E2 C B,2 ^D F2 D | %25
 E2 ^G E2 D C6 | D2 E F2 D D2 =F E^FG | C3- CB,C D2 E DED | C2 A, DEC B,6 ||[M:2/2] x8 | x8 | x8 | %32
 x8 | x8 | x8 | x8 | x8 | x8 | x8 | x8 | x8 | x8 | x8 | x8 | x8 | x8 | x8 | x8 | x8 | x8 | x8 | %51
 x8 | x8 | x8 |] %54

